X:22
T:Not For Joe
T:Dance: Dilwyn Stick Dance
C:Traditional.
M:4/4
L:1/8
K:G
P:A
D2 G2 D2 G2 | F2 E2 F2 E2 | D2 G2 D2 G2 | F2 G2 A4 |
D2 G2 D2 G2 | F2 E2 F2 E2 | D4 B3 A | G2 F2 G4 :|
P:B
B3 A G2 B2 | c4 A4 | B3 A G2 B2 | A2 F2 D4 |
B3 A G2 B2 | c4 A4 | D4 B3 A | G2 F2 G4 :|
P:Song
  G2  G2    DD     DD   | E2  E2   DD       DD     |
